svg/blobs-icons/no-decorations/folder.svg

<svg xmlns="http://www.w3.org/2000/svg" xmlns:xlink="http://www.w3.org/1999/xlink" preserveAspectRatio="xMidYMid" width="216" height="189" viewBox="0 0 216 189"><defs><style>.cls-3{fill:#2476ff}.cls-4{fill:#fbb713}.cls-5{fill:#000;opacity:.25}</style></defs><g id="group-123svg"><path d="M179.607 35.919s0-5.989.0-5.989c0-6.607-5.362-11.972-11.974-11.972H89.799s0-5.987.0-5.987C89.799 5.362 84.437-.004 77.824-.004H47.888c-6.612.0-11.974 5.366-11.974 11.975V29.93s0 5.989.0 5.989 143.693.0 143.693.0z" id="path-1" class="cls-3" fill-rule="evenodd"/><path d="M197.569 35.919s-116.751.0-116.751.0.0-8.982.0-8.982C80.818 17.027 72.775 8.976 62.856 8.976H17.952C8.033 8.976-.009 17.027-.009 26.937V53.879s0 8.98.0 8.98.0 13.472.0 13.472.0 94.295.0 94.295C-.009 180.553 8.033 188.587 17.952 188.587H197.569C207.488 188.587 215.53 180.553 215.53 170.626V62.859s0-8.98.0-8.98C215.53 43.968 207.488 35.919 197.569 35.919z" id="path-2" class="cls-4" fill-rule="evenodd"/><path d="M67.347 21.458s0 14.461.0 14.461 13.358.0 13.358.0c2.547-19.956-6.86-24.604-15.091-26.664C66.696 12.976 67.347 17.083 67.347 21.458z" id="path-3" class="cls-5" fill-rule="evenodd"/><path d="M200.326 36.196c1.083 2.312 1.733 4.862 1.733 7.581v8.979s0 107.767.0 107.767c0 9.92600000000002-8.042 17.961-17.962 17.961H4.481C3.535 178.484 2.626 178.346 1.72 178.206c2.863 6.12 9.031 10.381 16.232 10.381H197.569C207.488 188.587 215.531 180.553 215.531 170.626V62.859s0-8.98.0-8.98C215.531 44.912 208.926 37.533 200.326 36.196z" id="path-4" class="cls-5" fill-rule="evenodd"/></g></svg>

<svg xmlns="http://www.w3.org/2000/svg" xmlns:xlink="http://www.w3.org/1999/xlink" preserveAspectRatio="xMidYMid" width="216" height="189" viewBox="0 0 216 189">
  <defs>
    <style>

      .cls-3 {
        fill: #2476ff;
      }

      .cls-4 {
        fill: #fbb713;
      }

      .cls-5 {
        fill: #000000;
        opacity: 0.25;
      }
    </style>
  </defs>
  <g id="group-123svg">
    <path d="M179.607,35.919 C179.607,35.919 179.607,29.930 179.607,29.930 C179.607,23.323 174.245,17.958 167.633,17.958 C167.633,17.958 89.799,17.958 89.799,17.958 C89.799,17.958 89.799,11.971 89.799,11.971 C89.799,5.362 84.437,-0.004 77.824,-0.004 C77.824,-0.004 47.888,-0.004 47.888,-0.004 C41.276,-0.004 35.914,5.362 35.914,11.971 C35.914,11.971 35.914,29.930 35.914,29.930 C35.914,29.930 35.914,35.919 35.914,35.919 C35.914,35.919 179.607,35.919 179.607,35.919 Z" id="path-1" class="cls-3" fill-rule="evenodd"/>
    <path d="M197.569,35.919 C197.569,35.919 80.818,35.919 80.818,35.919 C80.818,35.919 80.818,26.937 80.818,26.937 C80.818,17.027 72.775,8.976 62.856,8.976 C62.856,8.976 17.952,8.976 17.952,8.976 C8.033,8.976 -0.009,17.027 -0.009,26.937 C-0.009,26.937 -0.009,53.879 -0.009,53.879 C-0.009,53.879 -0.009,62.859 -0.009,62.859 C-0.009,62.859 -0.009,76.331 -0.009,76.331 C-0.009,76.331 -0.009,170.626 -0.009,170.626 C-0.009,180.553 8.033,188.587 17.952,188.587 C17.952,188.587 197.569,188.587 197.569,188.587 C207.488,188.587 215.530,180.553 215.530,170.626 C215.530,170.626 215.530,62.859 215.530,62.859 C215.530,62.859 215.530,53.879 215.530,53.879 C215.530,43.968 207.488,35.919 197.569,35.919 Z" id="path-2" class="cls-4" fill-rule="evenodd"/>
    <path d="M67.347,21.458 C67.347,21.458 67.347,35.919 67.347,35.919 C67.347,35.919 80.705,35.919 80.705,35.919 C83.252,15.963 73.845,11.315 65.614,9.255 C66.696,12.976 67.347,17.083 67.347,21.458 Z" id="path-3" class="cls-5" fill-rule="evenodd"/>
    <path d="M200.326,36.196 C201.409,38.508 202.059,41.058 202.059,43.777 C202.059,43.777 202.059,52.756 202.059,52.756 C202.059,52.756 202.059,160.523 202.059,160.523 C202.059,170.449 194.017,178.484 184.097,178.484 C184.097,178.484 4.481,178.484 4.481,178.484 C3.535,178.484 2.626,178.346 1.720,178.206 C4.583,184.326 10.751,188.587 17.952,188.587 C17.952,188.587 197.569,188.587 197.569,188.587 C207.488,188.587 215.531,180.553 215.531,170.626 C215.531,170.626 215.531,62.859 215.531,62.859 C215.531,62.859 215.531,53.879 215.531,53.879 C215.531,44.912 208.926,37.533 200.326,36.196 Z" id="path-4" class="cls-5" fill-rule="evenodd"/>
  </g>
</svg>
